X: 43
M: 2/4
L: 1/16
K: D
g2fe {g}f2ed | c2d2- defg |\
a2(ba) g2f2 | {ga}b3a gfed |\
g2fe f2d2 | d2eB Tc3d | d6 :|
|: f2 |\
e2d2c2a2 | g2f2e2d2 |\
a2bf (T^g4{fg}) | a6 d2 |
c2B2c2A2 | d2{fg}a2g2f2 |\
gaba gfed | a2A2 z2a2 |\
b2(Tgf) g2g2 | g2e2 f2dA |\
(Bcde) Tc3d | d6 :|


